X:870
T:Girl from the Big House
R:jig
D:Niall & Cillian Vallely: Callan Bridge
Z:transcribed by Dave Marshall
M:6/8
K:Dmix
|: F2D DED | ABA GEA | ~D3 AGE | F2D D2E |
~F3 ~G3 | AGA cde | dcA GEA |1 ~D3 DAG :|2 ~D3 DAB |
|: c2A AGF | ~G3 GFG | A2d cAG | Ad^c d2e |
fed cAG | ~F3 G2A | dcA GEA |1 ~D3 DAB :|2 ~D3 DAG |
